packages/flutter/assets/icons/eye-closed.svg

<?xml version="1.0" encoding="UTF-8"?>
<svg width="24px" height="24px" viewBox="0 0 24 24" version="1.1" xmlns="http://www.w3.org/2000/svg" xmlns:xlink="http://www.w3.org/1999/xlink">
    <title>eye-closed</title>
    <g id="eye-closed" stroke="none" stroke-width="1" fill="none" fill-rule="evenodd">
        <path d="M21.8535534,2.14644661 C22.0271197,2.32001296 22.0464049,2.58943736 21.9114088,2.7843055 L21.8535534,2.85355339 L17.5178695,7.18929602 C19.0881188,8.30172048 20.5990225,9.90528847 22,12 C17.5858395,18.4476598 12.219762,20.2378283 7.33607915,17.3705056 L3.85355339,20.8535534 C3.65829124,21.0488155 3.34170876,21.0488155 3.14644661,20.8535534 C2.97288026,20.679987 2.95359511,20.4105626 3.08859116,20.2156945 L3.14644661,20.1464466 L6.47762809,16.8147967 C4.90857652,15.703044 3.39955972,14.0981118 2,12 C6.37478569,5.54007853 11.7557798,3.75120648 16.6594588,6.63338385 L21.1464466,2.14644661 C21.3417088,1.95118446 21.6582912,1.95118446 21.8535534,2.14644661 Z M16.8024005,7.90308586 L15.1596044,9.54676096 C15.6863305,10.2241705 16,11.0754545 16,12 C16,14.209139 14.209139,16 12,16 C11.0754545,16 10.2241705,15.6863305 9.54676096,15.1596044 L8.06625261,16.6410221 C12.2311617,18.9394717 16.6965275,17.4769511 20.592658,12.2504347 L20.781,11.993 L20.5994441,11.7407409 C19.3889961,10.0825326 18.1136864,8.80329876 16.8024005,7.90308586 Z M3.40449452,11.7450698 L3.215,12.004 L3.39912415,12.2594441 C4.60856581,13.9208289 5.88266266,15.2013912 7.19337955,16.1010335 L8.84039558,14.453239 C8.31366954,13.7758295 8,12.9245455 8,12 C8,9.790861 9.790861,8 12,8 C12.9245455,8 13.7758295,8.31366954 14.453239,8.84039558 L15.9296659,7.3626691 C11.7469073,5.05008158 7.2694662,6.51039552 3.40449452,11.7450698 Z M14.4454251,10.2618047 L10.2618047,14.4454251 C10.7522009,14.7946246 11.3521164,15 12,15 C13.6568542,15 15,13.6568542 15,12 C15,11.3521164 14.7946246,10.7522009 14.4454251,10.2618047 Z M12,9 C10.3431458,9 9,10.3431458 9,12 C9,12.6478836 9.20537542,13.2477991 9.55457487,13.7381953 L13.7381953,9.55457487 C13.2477991,9.20537542 12.6478836,9 12,9 Z" id="Line-12" fill="#303846"></path>
    </g>
</svg>

<svg xmlns="http://www.w3.org/2000/svg" width="24" height="24" viewBox="0 0 24 24"><path fill-rule="evenodd" d="M21.854 2.146a.5.5 0 0 1 .057.638l-.057.07-4.336 4.335C19.088 8.302 20.599 9.905 22 12c-4.414 6.448-9.78 8.238-14.664 5.37l-3.482 3.484a.5.5 0 0 1-.765-.638l.057-.07 3.332-3.331C4.908 15.703 3.4 14.098 2 12c4.375-6.46 9.756-8.249 14.66-5.367l4.486-4.487a.5.5 0 0 1 .708 0zm-5.052 5.757L15.16 9.547a4 4 0 0 1-5.613 5.613l-1.48 1.481c4.164 2.298 8.63.836 12.526-4.39l.188-.258-.182-.252c-1.21-1.658-2.485-2.938-3.797-3.838zM3.404 11.745l-.189.259.184.255c1.21 1.662 2.484 2.942 3.794 3.842l1.647-1.648a4 4 0 0 1 5.613-5.613l1.477-1.477C11.747 5.05 7.27 6.51 3.404 11.745zm11.041-1.483l-4.183 4.183a3 3 0 0 0 4.184-4.184zM12 9a3 3 0 0 0-2.445 4.738l4.183-4.183A2.986 2.986 0 0 0 12 9z"/></svg>
